svgs/solid/oil-temperature.svg

<svg xmlns="http://www.w3.org/2000/svg" viewBox="0 0 576 512"><!--! Font Awesome Pro 6.4.2 by @fontawesome - https://fontawesome.com License - https://fontawesome.com/license (Commercial License) Copyright 2023 Fonticons, Inc. --><path d="M256 32c0-17.7 14.3-32 32-32h64c17.7 0 32 14.3 32 32s-14.3 32-32 32H320V96h32c17.7 0 32 14.3 32 32s-14.3 32-32 32H320v70.7c28.3 12.3 48 40.5 48 73.3c0 44.2-35.8 80-80 80s-80-35.8-80-80c0-32.8 19.7-61 48-73.3V128 32zM400 304l0-1.2c21.9-3.2 43.7-12.6 61.5-24.9l0 0c11.9-8.5 28.1-7.8 39.2 1.7c14.4 11.9 32.5 21 50.6 25.2c17.2 4 27.9 21.2 23.9 38.4s-21.2 27.9-38.4 23.9c-24.5-5.7-44.9-16.5-58.2-25C449.5 357.7 417 368 384 368c-1.4 0-2.7 0-4-.1c12.6-18.1 20-40.2 20-63.9zM192 368c-33 0-65.5-10.3-94.5-25.8c-13.4 8.4-33.7 19.3-58.2 25c-17.2 4-34.4-6.7-38.4-23.9s6.7-34.4 23.9-38.4c18.1-4.2 36.2-13.3 50.6-25.2c11.1-9.5 27.3-10.1 39.2-1.7l0 0c17.8 12.3 39.6 21.7 61.4 24.9l0 1.2c0 23.8 7.4 45.8 20 63.9c-1.3 0-2.7 .1-4 .1zm192 80c26.9 0 55.4-10.8 77.4-26.1l0 0c11.9-8.5 28.1-7.8 39.2 1.7c14.4 11.9 32.5 21 50.6 25.2c17.2 4 27.9 21.2 23.9 38.4s-21.2 27.9-38.4 23.9c-24.5-5.7-44.9-16.5-58.2-25C449.5 501.7 417 512 384 512c-31.9 0-60.6-9.9-80.4-18.9c-5.8-2.7-11.1-5.3-15.6-7.7c-4.5 2.4-9.7 5.1-15.6 7.7c-19.8 9-48.5 18.9-80.4 18.9c-33 0-65.5-10.3-94.5-25.8c-13.4 8.4-33.7 19.3-58.2 25c-17.2 4-34.4-6.7-38.4-23.9s6.7-34.4 23.9-38.4c18.1-4.2 36.2-13.3 50.6-25.2c11.1-9.4 27.3-10.1 39.2-1.7l0 0C136.7 437.2 165.1 448 192 448c27.5 0 55-10.6 77.5-26.1c11.1-7.9 25.9-7.9 37 0C329 437.4 356.5 448 384 448z"/></svg>

<svg xmlns="http://www.w3.org/2000/svg" viewBox="0 0 576 512"><!--! Font Awesome Pro 6.1.1 by @fontawesome - https://fontawesome.com License - https://fontawesome.com/license (Commercial License) Copyright 2022 Fonticons, Inc. --><path d="M256 32C256 14.33 270.3 0 288 0H352C369.7 0 384 14.33 384 32C384 49.67 369.7 64 352 64H320V96H352C369.7 96 384 110.3 384 128C384 145.7 369.7 160 352 160H320V230.7C348.3 243 368 271.2 368 304C368 348.2 332.2 384 288 384C243.8 384 208 348.2 208 304C208 271.2 227.7 243 256 230.7V32zM399.1 302.8C421.9 299.6 443.7 290.2 461.4 277.9L461.5 277.9C473.4 269.4 489.5 270.1 500.7 279.6C515 291.5 533.2 300.6 551.3 304.8C568.5 308.8 579.2 326.1 575.2 343.3C571.2 360.5 553.1 371.2 536.7 367.2C512.2 361.4 491.9 350.6 478.5 342.2C449.5 357.7 417 368 384 368C382.6 368 381.3 367.1 379.1 367.9C392.6 349.8 400 327.8 400 303.1L399.1 302.8zM97.5 342.2C84.12 350.6 63.79 361.4 39.27 367.2C22.06 371.2 4.853 360.5 .8422 343.3C-3.169 326.1 7.532 308.8 24.74 304.8C42.84 300.6 60.96 291.5 75.31 279.6C86.46 270.1 102.6 269.4 114.5 277.9L114.6 277.9C132.3 290.2 154.1 299.6 176 302.8L176 304C176 327.8 183.4 349.8 196 367.9C194.7 367.1 193.4 368 192 368C158.1 368 126.5 357.7 97.5 342.2L97.5 342.2zM461.4 421.9L461.5 421.9C473.4 413.4 489.5 414.1 500.7 423.6C515 435.5 533.2 444.6 551.3 448.8C568.5 452.8 579.2 470.1 575.2 487.3C571.2 504.5 553.1 515.2 536.7 511.2C512.2 505.4 491.9 494.6 478.5 486.2C449.5 501.7 417 512 384 512C352.1 512 323.4 502.1 303.6 493.1C297.7 490.5 292.5 487.8 288 485.4C283.5 487.8 278.3 490.5 272.4 493.1C252.6 502.1 223.9 512 192 512C158.1 512 126.5 501.7 97.5 486.2C84.12 494.6 63.79 505.4 39.27 511.2C22.06 515.2 4.854 504.5 .8426 487.3C-3.169 470.1 7.532 452.8 24.74 448.8C42.84 444.6 60.96 435.5 75.31 423.6C86.46 414.1 102.6 413.4 114.5 421.9L114.6 421.9C136.7 437.2 165.1 448 192 448C219.5 448 247 437.4 269.5 421.9C280.6 414 295.4 414 306.5 421.9C328.1 437.4 356.5 448 384 448C410.9 448 439.4 437.2 461.4 421.9H461.4z"/></svg>
